teeny/outline/facebook.svg

<svg width="15" height="15" viewBox="0 0 15 15" fill="none" xmlns="http://www.w3.org/2000/svg">
<path d="M7.5 14.5C3.63401 14.5 0.5 11.366 0.5 7.5C0.5 3.63401 3.63401 0.5 7.5 0.5C11.366 0.5 14.5 3.63401 14.5 7.5C14.5 11.366 11.366 14.5 7.5 14.5ZM7.5 14.5V6.5C7.5 5.39543 8.39543 4.5 9.5 4.5H10M5 8.5H10" stroke="black"/>
</svg>

<svg viewBox="0 0 15 15" xmlns="http://www.w3.org/2000/svg"><path fill="none" stroke="#000" d="M7.5 14.5c-3.87 0-7-3.14-7-7 0-3.87 3.13-7 7-7 3.86 0 7 3.13 7 7 0 3.86-3.14 7-7 7Zm0 0v-8c0-1.11.89-2 2-2h.5m-5 4h5"/></svg>
